X:766
%%etbk:tnset id:499,pos:1,rep:3x,ant:
%%etbk:pldat 2016-03-28T15:47,2016-03-27T14:41,2016-03-25T16:26,2016-03-24T15:50,2016-03-23T16:55,2016-03-22T15:25,2016-03-21T18:10,2016-03-21T18:06,2016-03-20T13:49,2016-03-16T15:42,2016-02-15T19:29,2016-01-28T17:57,2016-01-27T15:20,2016-01-25T19:00,2016-01-24T13:54,2016-01-20T18:14,2016-01-19T15:51,2016-01-14T18:13,2016-01-13T16:37,2016-01-13T16:18,2016-01-12T17:04,2016-01-11T19:00,2016-01-10T12:50,2016-01-05T17:58
T:Red is the Rose
Z: Piano Box Version by Martin Fleischmann
H: Created 2016-01-05 /  Last Modified 2016-03-28
R: song
M:6/8
L:1/8
K: Cmaj
V:M1  clef=treble  
V:M2  clef=treble   
%            End of header, start of tune body:
[V:M1]"C"C3 D2D|"am"E3-E2E|"dm"F3 A2A|"F"D3 "G"z2 D|"C"E3 D2D|"am"C3-C2E|"F"F6|"G"D3 z2z|
[V:M2]"C"zG,A, CDG|"am"E3-EDE|"dm"F3-FEC|"F"C/D/-D2 "G"z3|"C"zG,A, CDG|"am"E3-EDE|"F"C3-C3 |"G"C/D/-D2 z3|
[V:M3]"C"e3ede|"am"c6|"dm"-c6|"F"A3 "G"zGD/E/|"C"z6|"am"z6|"F"f3-fec|"G"[d6B]|
[V:M1]"C"C3 C2D|"am"E3-E2E|"dm"DE2 D2C|"F"A,3 "G"z2 G,|"C"C3 C2B,|"am"C3 E2G|"F"A6|"G"G3 z2z|
[V:M2]"C"[e5c][dB]|"am"[c6A]|"dm"[d6A]|"F"[c3A] "G"[d3G]|"C"[e6c]|"am"[e6c]|"F"[f6c] |"G"[d6B]|
[V:M3]"C"z6|"am"z6|"dm"z6|"F"z3 "G"z3|"C"z6|"am"z6|"F"f2e3c|"G"[d6B]|
[V:M1]"F"A3 A2G|"C"E3 E2G|"F"F2E "dm/E"D2C|"dm"A,3 "G"z2G,|"C"C3 E2G|"F"A3 "C"G2E|"G"D6|"C"C6||
[V:M2]"F"[f6c]|"C"[e6c]|"F"[c6A] |"dm"[d3A] "G"[d3G]|"C"[c3G][e3c]|"F"[f3c] "C"[e3c]|"G"[d6G]|"C"[c6G]||
[V:M3]"F"[f6c]|"C"[e6c]|"F"[c6A] |"dm"[d3A] "G"[d3G]|"C"[c3G][e3c]|"F"[f3c] "C"[e3c]|"G"[d6G]|"C"[c6G]||


